svgs/nightwaveplaza.svg

<svg width="24" height="24" viewBox="0 0 24 24" fill="none" xmlns="http://www.w3.org/2000/svg">
<path fill-rule="evenodd" clip-rule="evenodd" d="M11.9354 22C17.4939 22 22 17.5228 22 12C22 6.47715 17.4939 2 11.9354 2C10.9728 2 10.0418 2.13426 9.16032 2.38496C9.55547 2.3308 9.95902 2.30281 10.3692 2.30281C15.2099 2.30281 19.1341 6.2018 19.1341 11.0115C19.1341 12.5981 18.707 14.0856 17.9609 15.3668C17.9163 15.2487 17.8675 14.9896 17.8441 14.5027C17.8152 13.9014 17.8336 13.6582 17.9507 13.09C18.0285 12.7126 18.1296 12.304 18.1755 12.1822C18.3715 11.6614 18.5342 11.0562 18.5669 10.7272C18.5974 10.4187 18.584 10.356 18.4602 10.2331C18.3496 10.1231 18.2715 10.0999 18.104 10.1269C17.986 10.1459 17.7772 10.241 17.6399 10.3382C17.3815 10.5212 16.845 11.2695 16.6569 11.7092C16.2584 12.6407 16.154 13.2672 16.2016 14.4404C16.2391 15.3626 16.3211 15.8076 16.6284 16.754L16.7145 17.0191C15.8691 17.9004 14.8396 18.6058 13.6873 19.0744C13.6739 19.0359 13.6611 18.9936 13.65 18.9505C13.5638 18.6168 13.2928 17.9642 13.0694 17.5526C12.975 17.3786 12.7333 17.0557 12.5323 16.8349L12.1667 16.4335L12.4679 16.4745C12.8523 16.5269 13.6356 16.7829 14.2783 17.0663C14.8704 17.3274 15.3773 17.5114 15.2647 17.4243C14.9334 17.1682 13.411 16.5305 12.7126 16.3554L12.2482 16.2389L12.3963 16.119C12.5293 16.0114 12.6126 16.0033 13.2087 16.0401C13.7635 16.0744 14.8938 16.2434 15.3912 16.3665C15.5042 16.3945 15.5061 16.3906 15.4088 16.3298C15.2247 16.2149 14.3568 16.0177 13.6031 15.9195C13.2086 15.8682 12.8678 15.8261 12.8457 15.8261C12.8236 15.8261 12.8873 15.7413 12.9873 15.6376C13.1502 15.4686 13.209 15.449 13.5531 15.449C13.7643 15.449 14.0271 15.4747 14.1371 15.506C14.2472 15.5374 14.5601 15.5792 14.8326 15.5991L15.3279 15.6352L14.6004 15.4809C14.2003 15.3961 13.7662 15.3259 13.6357 15.325C13.4721 15.3238 13.3985 15.2952 13.3985 15.2327C13.3985 15.1829 13.4408 15.1061 13.4652 15.0731C13.5256 14.9912 13.7572 14.6168 13.9156 14.1605C14.0122 13.882 14.0486 13.6108 14.0546 13.1234C14.0591 12.7604 14.0399 12.1914 14.012 11.8589L13.9614 11.2543L14.2497 11.1822C15.0219 10.989 15.6975 10.4786 16.2146 9.69788C16.4548 9.33496 16.7277 8.52395 16.6509 8.40057C16.6315 8.3694 16.4398 8.35833 16.2248 8.37599C16.0099 8.39359 15.4002 8.43885 14.87 8.47656C14.2921 8.51767 13.6761 8.60309 13.3319 8.68976L12.7577 8.83439L12.5879 8.69479C12.3093 8.46575 11.7456 8.13068 11.3742 7.97335C10.965 7.79994 10.4827 7.68146 9.93862 7.62062L9.91366 7.61783C9.68058 7.59186 9.52417 7.57443 9.44663 7.50261C9.37648 7.43775 9.18285 7.29371 9.14951 7.29371C9.14951 7.29371 8.22155 6.67787 7.53101 6.43067C7.10419 6.27781 6.4399 6.15172 6.4399 6.22344C6.4399 6.24079 6.52176 6.43563 6.62184 6.6565C6.80719 7.06543 6.96888 7.75142 7.04568 8.45463L7.08844 8.84558L6.78935 9.15563C6.62487 9.32616 6.44091 9.5464 6.3805 9.64501C6.18901 9.9579 6.01347 10.5014 5.96767 10.9235C5.88954 11.643 5.74784 12.3744 5.65314 12.5471C5.46677 12.887 5.36954 13.1609 5.35139 13.397L5.33285 13.6392L5.01655 13.4232C4.36884 12.9807 3.13426 12.4277 2.81074 12.4351C2.7366 12.4368 2.86097 12.5083 3.08713 12.594C3.61206 12.7929 4.66565 13.3235 5.02921 13.5721C5.2968 13.755 5.41756 13.9087 5.34804 13.9778C5.33032 13.9954 5.16313 13.9288 4.97645 13.8298C4.56715 13.613 4.05032 13.4267 3.37572 13.2528C2.35951 12.991 2.66999 13.1574 3.84624 13.5051C4.46954 13.6893 5.46456 14.1585 5.51631 14.2926C5.53883 14.3508 5.54262 14.413 5.52478 14.4308C5.50688 14.4485 5.38523 14.4178 5.25441 14.3625C4.72746 14.1398 3.67032 13.933 3.13824 13.9484C2.93385 13.9544 3.00204 13.9762 3.41089 14.0354C3.71074 14.0789 4.15198 14.1619 4.39142 14.2201C4.91654 14.3475 5.5723 14.6572 5.63479 14.6948C5.67554 14.7193 5.77156 14.8001 5.84039 14.9288C6.01201 15.2501 6.91163 16.1427 7.27784 16.355C7.54258 16.5086 7.57383 16.5489 7.54208 16.6962C7.52234 16.788 7.46908 16.9622 7.42378 17.0832C7.31982 17.3611 7.10241 18.2022 6.97949 18.7247L6.8763 19.0011C4.55782 17.9992 2.76042 16.0301 2 13.6065C2.77351 18.3656 6.92729 22 11.9354 22ZM10.4027 8.63784C10.6374 8.74853 10.8048 9.00208 10.8048 9.24709C10.8048 9.51013 10.6449 9.84475 10.4027 10.0282C10.2034 10.1793 10.0932 10.2122 9.74657 10.2122C9.35948 10.2122 9.27738 10.1509 9.09217 9.97915C8.95327 9.80434 8.90704 9.68091 8.90704 9.46136C8.90704 9.31296 8.95315 9.12616 9.00952 9.04621L9.112 8.90089L9.22555 9.15287C9.41002 9.56224 9.77781 9.66695 10.0436 9.38581C10.1736 9.24841 10.1855 9.19134 10.149 8.88297C10.1264 8.69165 10.1252 8.53508 10.1463 8.53508C10.1674 8.53508 10.2828 8.58134 10.4027 8.63784ZM7.4792 10.5823C7.53385 10.6367 7.57858 10.7088 7.57858 10.7426C7.57858 10.7764 7.47869 10.9062 7.35654 11.0312C7.11976 11.2734 6.96205 11.6844 6.90328 12.2125C6.84097 12.7713 7.12595 13.1799 7.50855 13.0805C7.58187 13.0615 7.64184 13.074 7.64184 13.1084C7.64184 13.2347 7.44959 13.3233 7.16682 13.3276C6.83015 13.3327 6.60609 13.1954 6.4151 12.8673C6.32173 12.7068 6.28909 12.5321 6.28687 12.1806C6.28466 11.8237 6.31718 11.6391 6.42073 11.4207C6.49601 11.2621 6.63664 11.0389 6.73324 10.9247C6.89556 10.7331 7.23603 10.4844 7.33686 10.4838C7.36046 10.4837 7.42448 10.528 7.4792 10.5823ZM7.85597 11.3299C7.9899 11.533 7.98572 11.9533 7.84636 12.3063C7.63577 12.8395 7.46534 12.9858 7.27493 12.7966C7.16783 12.6902 7.18061 12.0681 7.29688 11.7291C7.39241 11.4506 7.59307 11.1749 7.70029 11.1749C7.72971 11.1749 7.7998 11.2446 7.85597 11.3299ZM11.3196 11.5049C11.4019 11.5482 11.5392 11.6326 11.6246 11.6928C11.7769 11.8 11.7775 11.8039 11.6561 11.8951C11.5311 11.8997 11.0832 12.1813 10.8114 12.612C10.5739 13.0829 10.5772 13.8342 10.8181 14.1298C10.9274 14.2638 11.0822 14.324 11.3049 14.3347C11.576 14.3477 11.6922 14.2699 11.873 14.0662C12.0619 13.8534 12.3231 13.3797 12.3231 13.2498C12.3231 13.2149 12.3683 13.1863 12.4235 13.1863C12.5063 13.1863 12.5164 13.2334 12.4811 13.4534C12.391 14.0144 12.3027 14.2572 12.1068 14.4824C11.9138 14.7042 11.8864 14.7149 11.5285 14.7091C11.2865 14.7051 10.7028 14.602 10.3643 14.4824C9.90409 14.2818 9.47068 13.9119 9.40603 13.6262C9.33942 13.3313 9.40546 12.8618 9.56728 12.4805C9.62194 12.3517 9.79799 12.1158 9.95848 11.9563C10.4195 11.4982 10.9633 11.3179 11.3196 11.5049ZM12.0944 12.3984C12.1506 12.4836 12.1966 12.5956 12.1966 12.6473C12.1966 12.699 12.1468 12.9044 12.0858 13.1038C11.95 13.5487 11.5486 14.0034 11.2916 14.0034C11.0342 14.0034 10.9059 13.7608 10.9496 13.357C10.9938 12.9484 11.1258 12.6848 11.4104 12.4364C11.6878 12.1945 11.9503 12.1798 12.0944 12.3984ZM8.46358 14.3665L8.6211 14.466L8.43195 14.5461C8.32789 14.5902 8.21073 14.6275 8.17145 14.6291C8.08061 14.6327 7.98622 14.5156 7.92796 14.327C7.88475 14.1872 7.89367 14.1816 8.09415 14.2232C8.21073 14.2474 8.37692 14.3119 8.46358 14.3665Z" fill="black"/>
<path d="M8.34881 4.6635L8.43298 4.47933C8.5339 4.25852 8.7117 4.08196 8.93322 3.9826L9.11714 3.9001L8.93322 3.8176C8.7117 3.71824 8.5339 3.54168 8.43298 3.32087L8.34881 3.1367L8.26971 3.31352C8.16894 3.53881 7.98841 3.71888 7.76286 3.81908L7.58048 3.9001L7.76286 3.98113C7.98841 4.08132 8.16894 4.26139 8.26971 4.48668L8.34881 4.6635Z" fill="black"/>
<path d="M7.16192 5.14716C7.211 5.03978 7.29758 4.95365 7.40531 4.90533C7.29758 4.85701 7.211 4.77088 7.16192 4.6635C7.11386 4.77093 7.02778 4.8568 6.92023 4.90458L6.91853 4.90533L6.92023 4.90609C7.02778 4.95387 7.11386 5.03973 7.16192 5.14716Z" fill="black"/>
<path d="M9.23266 6.02688C9.32774 5.81885 9.49548 5.652 9.70417 5.55839C9.49548 5.46478 9.32774 5.29793 9.23266 5.0899C9.13956 5.29802 8.97279 5.46436 8.76444 5.55692L8.76114 5.55839L8.76444 5.55985C8.97279 5.65241 9.13956 5.81875 9.23266 6.02688Z" fill="black"/>
<path d="M10.7036 7.04375L10.7812 6.87388C10.8821 6.65306 11.0599 6.47651 11.2815 6.37714L11.4511 6.30107L11.2815 6.22499C11.0599 6.12563 10.8821 5.94907 10.7812 5.72826L10.7036 5.55839L10.6309 5.72091C10.5301 5.9462 10.3496 6.12627 10.124 6.22647L9.9561 6.30107L10.124 6.37567C10.3496 6.47587 10.5301 6.65593 10.6309 6.88122L10.7036 7.04375Z" fill="black"/>
<path d="M10.5793 4.3563C10.6744 4.14827 10.8421 3.98142 11.0508 3.88781C10.8421 3.7942 10.6744 3.62735 10.5793 3.41932C10.4862 3.62744 10.3194 3.79378 10.1111 3.88635L10.1078 3.88781L10.1111 3.88927C10.3194 3.98183 10.4862 4.14817 10.5793 4.3563Z" fill="black"/>
</svg>

<svg xmlns="http://www.w3.org/2000/svg" width="24" height="24" fill="none" viewBox="0 0 24 24"><path fill="#000" fill-rule="evenodd" d="M11.935 22C17.494 22 22 17.523 22 12S17.494 2 11.935 2c-.962 0-1.893.134-2.775.385a8.899 8.899 0 0 1 1.21-.082c4.84 0 8.764 3.899 8.764 8.709a8.626 8.626 0 0 1-1.173 4.355c-.045-.118-.093-.377-.117-.864-.029-.602-.01-.845.107-1.413a9.17 9.17 0 0 1 .224-.908c.197-.52.36-1.126.392-1.455.03-.308.017-.371-.107-.494-.11-.11-.189-.133-.356-.106a1.377 1.377 0 0 0-.464.211c-.259.183-.795.932-.983 1.371-.399.932-.503 1.558-.455 2.731.037.923.12 1.368.426 2.314l.087.265a8.781 8.781 0 0 1-3.028 2.055 1.582 1.582 0 0 1-.037-.123c-.086-.334-.357-.987-.58-1.398a4.651 4.651 0 0 0-.538-.718l-.365-.402.3.041c.385.053 1.169.309 1.811.592.592.261 1.1.445.987.358-.332-.256-1.854-.893-2.552-1.069l-.465-.116.148-.12c.133-.108.217-.116.813-.079.555.034 1.685.203 2.182.326.113.029.115.025.018-.036-.184-.115-1.052-.312-1.806-.41a31.414 31.414 0 0 0-.757-.094c-.022 0 .041-.085.141-.188.163-.17.222-.189.566-.189.211 0 .474.026.584.057.11.031.423.073.696.093l.495.036-.728-.154c-.4-.085-.834-.155-.964-.156-.164-.001-.237-.03-.237-.092a.35.35 0 0 1 .066-.16c.06-.082.292-.456.45-.912.097-.279.134-.55.14-1.038a16.14 16.14 0 0 0-.043-1.264l-.05-.605.288-.072c.772-.193 1.447-.703 1.965-1.484.24-.363.513-1.174.436-1.297-.02-.032-.211-.043-.426-.025a181.5 181.5 0 0 1-1.355.1c-.578.042-1.194.127-1.538.214l-.574.144-.17-.14a6.11 6.11 0 0 0-1.214-.72A5.16 5.16 0 0 0 9.94 7.62l-.025-.003c-.233-.026-.39-.044-.467-.115-.07-.065-.264-.21-.297-.21 0 0-.928-.615-1.619-.862-.427-.153-1.091-.28-1.091-.208 0 .018.082.213.182.434.185.408.347 1.094.424 1.798l.042.39-.299.31a3.94 3.94 0 0 0-.409.49c-.191.313-.367.856-.412 1.279-.078.719-.22 1.45-.315 1.623-.186.34-.283.614-.302.85l-.018.242-.316-.216c-.648-.442-1.883-.995-2.206-.988-.074.002.05.073.276.159.525.199 1.579.73 1.942.978.268.183.389.337.319.406-.018.017-.185-.05-.372-.148-.409-.217-.926-.403-1.6-.577-1.016-.262-.706-.096.47.252.624.184 1.619.653 1.67.788.023.058.027.12.009.138-.018.018-.14-.013-.27-.068-.528-.223-1.585-.43-2.117-.415-.204.006-.136.028.273.087.3.044.741.127.98.185a6.732 6.732 0 0 1 1.244.475c.04.024.137.105.205.234.172.321 1.072 1.214 1.438 1.426.265.154.296.194.264.341a3.42 3.42 0 0 1-.118.387c-.104.278-.322 1.12-.445 1.642L6.876 19A8.753 8.753 0 0 1 2 13.606C2.774 18.367 6.927 22 11.935 22M10.403 8.638c.234.11.402.364.402.61 0 .262-.16.597-.402.78-.2.151-.31.184-.656.184-.388 0-.47-.061-.655-.233a.718.718 0 0 1-.185-.518c0-.148.046-.335.103-.415l.102-.145.114.252c.184.41.552.514.818.233.13-.138.141-.195.105-.503-.023-.191-.024-.348-.003-.348s.137.046.257.103m-2.924 1.944c.055.055.1.127.1.16 0 .034-.1.164-.222.29-.237.241-.395.652-.454 1.18-.062.56.223.968.606.869.073-.02.133-.007.133.027 0 .127-.192.215-.475.22-.337.005-.56-.133-.752-.46-.093-.161-.126-.336-.128-.687-.002-.357.03-.542.134-.76.075-.159.216-.382.312-.496.163-.192.503-.44.604-.441.023 0 .087.044.142.098m.377.748c.134.203.13.623-.01.976-.21.534-.38.68-.571.49-.107-.106-.094-.728.022-1.067.095-.278.296-.554.403-.554.03 0 .1.07.156.155m3.464.175c.082.043.22.128.305.188.152.107.152.11.031.202-.125.005-.573.286-.845.717-.237.47-.234 1.222.007 1.518.11.134.264.194.487.205.271.013.387-.065.568-.269.189-.213.45-.686.45-.816 0-.035.045-.064.1-.064.083 0 .093.047.058.267-.09.561-.178.804-.374 1.03-.193.221-.22.232-.578.226a4.926 4.926 0 0 1-1.165-.227c-.46-.2-.893-.57-.958-.856-.067-.295 0-.764.161-1.146.055-.128.231-.364.391-.524.461-.458 1.005-.638 1.362-.451m.774.893a.61.61 0 0 1 .103.25c0 .051-.05.256-.111.456-.136.445-.537.9-.794.9-.258 0-.386-.243-.342-.647.044-.409.176-.672.46-.92.278-.242.54-.257.684-.039m-3.63 1.969.157.099-.189.08a1.15 1.15 0 0 1-.26.083c-.091.004-.186-.113-.244-.302-.043-.14-.034-.145.166-.104.117.024.283.089.37.143" clip-rule="evenodd"/><path fill="#000" d="m8.349 4.664.084-.185a1 1 0 0 1 .5-.496l.184-.083-.184-.082a1 1 0 0 1-.5-.497l-.084-.184-.08.177a1 1 0 0 1-.506.505L7.58 3.9l.183.081a1 1 0 0 1 .507.506l.079.176m-1.187.484a.487.487 0 0 1 .243-.242.487.487 0 0 1-.243-.242.477.477 0 0 1-.242.242l.001.001a.477.477 0 0 1 .242.241m2.07.88a.944.944 0 0 1 .471-.469.944.944 0 0 1-.471-.468.924.924 0 0 1-.469.467l-.003.001.003.002a.924.924 0 0 1 .469.467m1.471 1.017.077-.17a1 1 0 0 1 .5-.497l.17-.076-.17-.076a1 1 0 0 1-.5-.497l-.077-.17-.073.163a1 1 0 0 1-.507.505l-.168.075.168.075a1 1 0 0 1 .507.505l.073.163m-.124-2.688a.944.944 0 0 1 .47-.468.944.944 0 0 1-.47-.469.924.924 0 0 1-.469.467l-.003.002.003.001a.924.924 0 0 1 .468.467"/></svg>
